!!!SOCIAL_FUNCTION:	initiation songs of the sixth degree
!!!PDT:	1909
!!!OTL: No_16_First_Song.krn
!!!REG: Great_Lakes
!!!LANG: Non-Tone
!!!LING_GROUP: Algonquin
**kern	**kern
*staff2	*staff1
*clefF4	*clefF4
*k[b-]	*k[b-]
*M2/4	*M2/4
4r	8c\L
.	8c\J
=1	=1
8GG/L	4c\
8GG/J	.
8GG/L	8.c\L
8GG/J	.
.	16A\Jk
=2	=2
8GG/L	4.c\
8GG/J	.
8GG/L	.
8GG/J	8c\
=3||	=3||
*M3/4	*M3/4
2.r	4.c\
.	8c\
.	4c\
=4	=4
2.r	4.c\
.	8c\
.	4c\
=5	=5
2.r	4.A\
.	8A\
.	8A\L
.	8F\J
=6	=6
2.r	4.F\
.	8F\
.	[4F\
=7||	=7||
*M2/4	*M2/4
2r	4F\]
.	8c\L
.	8c\J
=8||	=8||
*M3/4	*M3/4
2.r	4A\
.	8.A\L
.	16F\Jk
.	8.A\L
.	16A\Jk
=9	=9
2.r	4.A\
.	8A\
.	4A\
=10||	=10||
*M2/4	*M2/4
2r	2A\
=11!|:	=11!|:
*M3/4	*M3/4
2.r	4A\
.	4A\
.	8A\L
.	8F\J
=12	=12
2.r	4.F\
.	8F\
.	[4F\
=13||	=13||
*M2/4	*M2/4
2r	4F\]
.	8A\L
.	8A\J
=14	=14
2r	4F\
.	8.F\L
.	16D\Jk
=15	=15
2r	4.F\
.	8F\
=16	=16
2r	2F\
=17	=17
2r	4.F\
.	8F\
=18	=18
2r	4D\
.	4D\
=19||	=19||
*M3/4	*M3/4
2.r	4.C/
.	8C/
.	[4C/
=20||	=20||
*M2/4	*M2/4
2r	4C/]
.	8C/L
.	8C/J
=21	=21
2r	4C/
.	8C/L
.	8AA/J
=22	=22
2r	4C/
.	4C/
=23	=23
2r	4.C/
.	8C/
=24	=24
2r	4AA/
.	4AA/
=25	=25
2r	4.FF/
.	8FF/
=26	=26
2r	4FF/
.	8c\L
.	8c\J
=27	=27
2r	4c\
.	8.c\L
.	16A\Jk
=28	=28
2r	4.c\
.	8c\
=29||	=29||
*M3/4	*M3/4
2.r	4.c\
.	8c\
.	4c\
=30	=30
2.r	4.c\
.	8c\
.	4c\
=31	=31
2.r	4A\
.	4A\
.	8A\L
.	8F\J
=32	=32
2.r	4.F\
.	8F\
.	[4F\
=33||	=33||
*M2/4	*M2/4
2r	4F\]
.	8c\L
.	8c\J
=34||	=34||
*M3/4	*M3/4
2.r	4A\
.	8.A\L
.	16F\Jk
.	8.A\L
.	16A\Jk
=35	=35
2.r	4.A\
.	8A\
.	4A\
=36||	=36||
*M2/4	*M2/4
2r	2A\
==:|!	==:|!
*-	*-
